X: 1
T: Roaring Willie's -- Jig
B: Ryan's Mammoth Collection of Fiddle Tunes
R: slipjig
M: 9/8
L: 1/8
Z: Contributed 20000421172650 by John Chambers jchambers:casc.com
K: A
uf"Segno"\
| ecA ABA cef | =gfg B=GB (d2f) | ecA ABA ce^g | aga cAc efg |
| agf ecA cef | =gfg BGB (d2f) | vABA c2A cea | cAc BGB A2 |]
uf \
| vecA acA ecA | B=GB =gdB (d2f) | ecA acA ecA | a^gf ecA Bcd |
| ecA acA ecA | B=GB =gdB (d2f) | ecA acA ecA | a^gf ecA Bcd "Segno"[|]|]
